!!!OTL: Die Lindenwirtin (2-59), S. 156f
!!!id: K1140
**kern
*clefG2
*k[]
*C:
{16c
=1
16c
4g
8g
8.g
16f
8e
=2
4a
8a
4.a}
=3
{4a
8a
8cc
8b
8a
=4
4a
8g
4.g}
=5
{4g
8d
8d
8g
8b
=6
4.a
4.g}
=7
{4f
8f
8f
8e
8d
=8
4e
8g
4.cc}
=9
{4f
8f
8f
8e
8d
=10
4e
8g
4.cc}
=11
{4cc
8cc
8dd
8cc
8a
=12
4.a
4.g}
=13
{4g
8g
8g
8a
8b
=14
4.dd
4cc}
8r
==
*-
!!!minrhy: 16
!!!meters: 6/8 ]  ZZ[7
!!!cut: Die Lindenwirtin (2-59), S. 156f
!!!reg: Luxemburg
!!!trd: KINTZELE, Guillaume: An der Ucht, Bd. 2, Luxemburg 1927
!!!rhy1:   X__X_X_.XX_  X__X_X__.
!!!rhy2: X__X_X_X_X_  X__X_X__.
!!!key: K1140  16  C 6/8 ]  ZZ[7
!!!mod: HEPTATONIK IONISCH]  AMBITUS[8
!!!kad: 655+1+15+1
!!!akz: 5566_6+165_5265_443+1_443+1_+1+265_55+2+1_
!!!fot: 'a__b__c__d__d__e__cs"
!!!for: 'a__b__c__b__b__c__cv_
!!!fok: 'Va_^d_S__Va_Va_\__/__
!! PHRAS[VOLLTAKTIG]
!!!fkt: Trink-, Scherzlied
!!!bem: in der Quelle mit einer 2. Stimme versehen
!! KINTZELE
!! PR[50] 2K[4] 2G[16] 3K[1] 3G[1] 4A[4] 4Ü[0] 5A[0] 6K[0] 6G[0]
!! 7K[0] 7G[0] 8A[0] MEHR[0] SI[26] ABS[96] SR[20] SP[6]
!! ST[24] 2k[2] 2g[16] 3k[3] 3g[0] 4d[3] 4ü[0] 5d[0] 6k[0] 6g[0]
!! 7k[0] 7g[0] 8d[0] mehr[0] si[24] dm[+2] sr[18] sp[6]
!! 1F[39] 2F[40] 3F[7] 4F[0] LF[0] 2P[15] 3P[0] 4P[0] TRI[0] DF[4] AB[101]
!! TF[0] U3K[0] U3[0] U4[0] U4Ü[0] U5[23] U6K[0] U6[10] U7K[0] U7[4]
!! N1[11] N2K[0] N2[25] N3K[0] N3[20] N4[6] N4Ü[0] N5[1] N6K[0] N6[0]
!!!n7k: 0] N7[0] O1[0] O2K[0] O2[0] O3K[0] O3[0] HÖ[0
